dist/svg/email-o.svg

<!-- Generated by Trend Micro Style Portal -->
<svg version="1.1" xmlns="http://www.w3.org/2000/svg" width="16" height="16" viewBox="0 0 16 16">
  <title>email-o</title>
  <path fill="rgb(34,34,34)" d="M15 2h-14c-0.552 0-1 0.448-1 1v0 10c0 0.552 0.448 1 1 1v0h14c0.552 0 1-0.448 1-1v0-10c0-0.552-0.448-1-1-1v0zM15 3v1l-7 4.75-7-4.75v-1h14zM1 13v-7.76l7 4.76 7-4.78v7.78h-14z"></path>
</svg>

<svg width="16" height="16" viewBox="0 0 16 16" fill="rgb(34, 34, 34)" xmlns="http://www.w3.org/2000/svg"><title>email-o</title><path d="M15 2H1C0.448 2 0 2.448 0 3V13C0 13.552 0.448 14 1 14H15C15.552 14 16 13.552 16 13V3C16 2.448 15.552 2 15 2ZM15 3V4L8 8.75L1 4V3H15ZM1 13V5.24L8 10L15 5.22V13H1Z" fill="rgb(34, 34, 34)" fill-opacity="1.00"/></svg>
